X:43
T:Banks of Gray. LIT.043, The
M:2/2
Q:1/4=140
L:1/8
B:Wm. Litten MS, 1802
Z:Village Music Project 2017 Anne Wride
K:D
F/G/ |: A>B AF ABdf | A>B AF E2E2 | A>B AF ABdf | FD EF D2D2 :|
|: afdf Adfd | edfd e2 ef/g/ | afdf edfd Bg fe d2 d2 :|

